applets/22x22/drive-harddisk-symbolic.svg

<?xml version="1.0" encoding="UTF-8" standalone="no"?>
<svg
   height="22"
   width="22"
   version="1.1"
   id="svg1"
   xmlns="http://www.w3.org/2000/svg"
   xmlns:svg="http://www.w3.org/2000/svg">
  <defs
     id="defs1">
    <style
       type="text/css"
       id="current-color-scheme">
            .ColorScheme-Text {
                color:#232629;
            }
        </style>
  </defs>
  <path
     id="path1"
     style="fill:currentColor;opacity:0.6"
     class="ColorScheme-Text"
     d="M 6 1 C 4.3431492 1 3 2.3431492 3 4 L 3 18 C 3 19.65685 4.3431492 21 6 21 L 17 21 C 18.65685 21 20 19.65685 20 18 L 20 4 C 20 2.3431492 18.65685 1 17 1 L 6 1 z M 6 2 L 17 2 C 18.104567 2 19 2.8954327 19 4 L 19 18 C 19 19.104567 18.104567 20 17 20 L 6 20 C 4.8954327 20 4 19.104567 4 18 L 4 4 C 4 2.8954327 4.8954327 2 6 2 z M 6.4707031 16.908203 C 6.1614604 16.924233 5.9082031 17.18724 5.9082031 17.5 C 5.9082031 17.822849 6.1771513 18.091797 6.5 18.091797 C 6.8228507 18.091797 7.0917969 17.822849 7.0917969 17.5 C 7.0917969 17.177151 6.8228507 16.908203 6.5 16.908203 C 6.48995 16.908203 6.4806831 16.907686 6.4707031 16.908203 z " />
  <path
     id="path8"
     style="fill:currentColor;opacity:1"
     class="ColorScheme-Text"
     d="M 11.5,3 C 7.9171741,3 5,5.9171736 5,9.5 c 0,3.521057 2.8166111,6.397902 6.314453,6.496094 L 10.818359,14.955078 C 8.1075866,14.617852 6,12.300327 6,9.5 6,6.4685734 8.4685738,4 11.5,4 14.531428,4 17,6.4685734 17,9.5 c 0,1.595194 -0.686041,3.031532 -1.775391,4.037109 l 0.828125,0.595703 C 17.253608,12.952741 18,11.311999 18,9.5 18,5.9171736 15.082826,3 11.5,3 Z m -0.0293,5.9082031 c -0.309243,0.016028 -0.5625,0.279037 -0.5625,0.5917969 0,0.3228492 0.268948,0.591797 0.591797,0.591797 0.322851,0 0.591797,-0.2689478 0.591797,-0.591797 0,-0.322849 -0.268946,-0.5917969 -0.591797,-0.5917969 -0.01005,0 -0.01932,-5.17e-4 -0.0293,0 z m -1.205078,2.1621089 c -0.194836,-0.0069 -0.3918259,0.06889 -0.5078125,0.195313 -0.1855792,0.202273 -0.2205996,0.60003 -0.013672,0.841797 l 5.1113284,5.974609 c 0.608273,0.710689 1.73454,0.7048 2.335937,-0.01172 l 0.0078,-0.0078 c 0.603859,-0.719448 0.46461,-1.818047 -0.298828,-2.365234 l -6.304688,-4.519532 c -0.09699,-0.06952 -0.213176,-0.103267 -0.330078,-0.107422 z m 2.195313,2.677735 3.857421,2.761719 c 0.302251,0.216635 0.352354,0.625321 0.113282,0.910156 l -0.0078,0.0098 c -0.216669,0.258141 -0.587498,0.258015 -0.80664,0.002 z" />
  <path
     id="path2"
     style="opacity:0.1;fill:currentColor"
     class="ColorScheme-Text"
     d="M 6 2 C 4.9644692 2 4.1121857 2.7864123 4.0097656 3.7949219 C 4.0029376 3.8621559 4 3.9309645 4 4 L 4 18 C 4 19.104566 4.8954338 20 6 20 L 17 20 C 18.104566 20 19 19.104566 19 18 L 19 4 C 19 2.8954338 18.104566 2 17 2 L 6 2 z M 6.4707031 16.908203 C 6.4806831 16.907686 6.48995 16.908203 6.5 16.908203 C 6.8228504 16.908203 7.0917969 17.177151 7.0917969 17.5 C 7.0917969 17.822849 6.8228504 18.091797 6.5 18.091797 C 6.1771516 18.091797 5.9082031 17.822849 5.9082031 17.5 C 5.9082031 17.18724 6.1614607 16.924233 6.4707031 16.908203 z " />
</svg>

<?xml version="1.0" encoding="UTF-8" standalone="no"?>
<svg
   height="22"
   width="22"
   version="1.1"
   id="svg1"
   xmlns="http://www.w3.org/2000/svg"
   xmlns:svg="http://www.w3.org/2000/svg">
  <defs
     id="defs1">
    <style
       type="text/css"
       id="current-color-scheme">
            .ColorScheme-Text {
                color:#232629;
            }
        </style>
  </defs>
  <path
     id="path1"
     style="fill:currentColor"
     class="ColorScheme-Text"
     d="M 6,1 C 4.3431475,1 3,2.3431475 3,4 v 14 c 0,1.656852 1.3431475,3 3,3 h 11 c 1.656852,0 3,-1.343148 3,-3 V 4 C 20,2.3431475 18.656852,1 17,1 Z m 0,1 h 11 c 1.104568,0 2,0.8954316 2,2 v 14 c 0,1.104568 -0.895432,2 -2,2 H 6 C 4.8954316,20 4,19.104568 4,18 V 4 C 4,2.8954316 4.8954316,2 6,2 Z" />
  <path
     id="path8"
     style="fill:currentColor;opacity:0.6"
     class="ColorScheme-Text"
     d="M 11.5,3 C 7.9171741,3 5,5.9171736 5,9.5 c 0,3.521057 2.8166111,6.397902 6.314453,6.496094 L 10.818359,14.955078 C 8.1075866,14.617852 6,12.300327 6,9.5 6,6.4685734 8.4685738,4 11.5,4 14.531428,4 17,6.4685734 17,9.5 c 0,1.595194 -0.686041,3.031532 -1.775391,4.037109 l 0.828125,0.595703 C 17.253608,12.952741 18,11.311999 18,9.5 18,5.9171736 15.082826,3 11.5,3 Z m -0.0293,5.9082031 c -0.309243,0.016028 -0.5625,0.279037 -0.5625,0.5917969 0,0.3228492 0.268948,0.591797 0.591797,0.591797 0.322851,0 0.591797,-0.2689478 0.591797,-0.591797 0,-0.322849 -0.268946,-0.5917969 -0.591797,-0.5917969 -0.01005,0 -0.01932,-5.17e-4 -0.0293,0 z m -1.205078,2.1621089 c -0.194836,-0.0069 -0.3918259,0.06889 -0.5078125,0.195313 -0.1855792,0.202273 -0.2205996,0.60003 -0.013672,0.841797 l 5.1113284,5.974609 c 0.608273,0.710689 1.73454,0.7048 2.335937,-0.01172 l 0.0078,-0.0078 c 0.603859,-0.719448 0.46461,-1.818047 -0.298828,-2.365234 l -6.304688,-4.519532 c -0.09699,-0.06952 -0.213176,-0.103267 -0.330078,-0.107422 z m 2.195313,2.677735 3.857421,2.761719 c 0.302251,0.216635 0.352354,0.625321 0.113282,0.910156 l -0.0078,0.0098 c -0.216669,0.258141 -0.587498,0.258015 -0.80664,0.002 z" />
  <path
     id="path9"
     style="opacity:0.6;fill:currentColor"
     class="ColorScheme-Text"
     d="M 6.4707,16.908203 C 6.161457,16.924233 5.9082,17.18724 5.9082,17.5 c 0,0.322849 0.268948,0.591797 0.591797,0.591797 0.322851,0 0.591797,-0.268948 0.591797,-0.591797 0,-0.322849 -0.268946,-0.591797 -0.591797,-0.591797 -0.01005,0 -0.01932,-5.17e-4 -0.0293,0 z" />
</svg>
